X:1
T:O Mensch, bewein dein Sünde
T:André Vierendeels
T:Melody by Georg Vogler (1625) (Bass voice)
T:Source : Catechismus---Würzburg---J.Volmari---1652. Editor : André Vierendeels (09/10/17).
T:Notes : Original clef : F4, other voices supplied editorially Original note values have been halved Text Middle German Introduction Choir for the Passion of Christ
T:O Mensch, bewein dein Sünde
T:©
T:©
C:André Vierendeels
Z:©
%%score [ 1 2 3 ]
L:1/8
Q:1/4=120
M:2/2
K:F
V:1 treble nm="Soprano" snm="S"
V:2 treble-8 nm="Tenor" snm="T"
V:3 bass nm="Bass" snm="B"
V:1
 A4 A2 c2 | A2 A2 A2 G2 | !fermata!G4 c4 | A2 A2 G2 F2 | A2 B2 !fermata!G4 | F4 A2 G2 | F2 F2 G4 | %7
w: O Mensch, be-|wein dein Sün- de|grosz, dar-|umb Chri- stus seins|Vat- ters Schosz,|eus- sert und|kam auff Er-|
w: Von ei- ner|Jung- fraw rein und|zart, Je-|sus für uns ge-|boh- ren ward,|er wolt der|Mitt- ler wer-|
[M:2/4] !fermata!F4 ::[M:2/2] A4 F2 A2 | c2 c2 B2 F2 | A4 A4 | F2 F2 A2 G2 | A2 B2 G4 | A4 c2 F2 | %14
w: den:|den Tod- ten|er das Le- ben|gab, und|legt da- bey all|Kranck- heit ab,|bisz sich die|
w: den,|||||||
 A2 A2 G2 D2 | F4 B4 | A2 A2 G2 G2 | G2 ^F2 D4 | E4 G2 G2 | c2 G2 B2 B2 | G4 A4 | G2 A2 F2 F2 | %22
w: Zeit her- lan- *|ge, dasz|er für uns ge-|opp- fert wird,|trug un- ser|Sünd ein schwe- re|Bürd, wol|an _ dem Creutz|
w: ||||||||
 G4 !fermata!A4 :| %23
w: lan- ge.|
w: |
V:2
 c4 d2 e2 | c2 A2 c2 B2 | !fermata!c4 e4 | f2 c2 c2 A2 | d2 d2 !fermata!e4 | d4 c2 B2 | A2 c2 c4 | %7
w: O Mensch, be-|wein dein Sün- den|grosz, dar-|umb Chri- stus seins|Vat- ters Schosz,|eus- sert und|kam auff Er-|
w: Von ei- ner|Jung- fraw rein und|zart, Je-|sus für uns ge-|boh- ren ward,|er wolt der|Mitt- ler wer-|
[M:2/4] !fermata!A4 ::[M:2/2] c4 A2 A2 | e2 f2 d2 d2 | c4 c4 | d2 c2 A2 c2 | f2 d2 c4 | c4 f2 d2 | %14
w: den:|den Tod- ten|er das Le- ben|gab, und|legt da- bey all|Kranck- heit ab,|bisz sich die|
w: den,|||||||
 c2 c2 B4 | A4 d4 | f2 A2 c2 d2 | A2 d2 B4 | c4 d2 e2 | f2 c2 d2 d2 | e4 f4 | c4 d2 d2 | %22
w: Zeit her- lan-|ge, dasz|er für uns ge-|opp- fert wird,|trug un- ser|Sünd ein schwe- re|Bürd, wol|an dem Creutz|
w: ||||||||
 f2 e2 !fermata!c4 :| %23
w: lan- * ge.|
w: |
V:3
 F,4 D,2 C,2 | F,2 D,2 F,2 G,2 | !fermata!C,4 C,4 | D,2 F,2 E,2 F,2 | D,2 G,2 !fermata!C,4 | %5
w: O Mensch, be-|wein dein Sün- de|grosz, dar-|umb Chri- stus seins|Vat- ters Schosz,|
w: Von ei- ner|Jung- fraw rein und|zart, Je-|sus für uns ge-|boh- ren ward,|
 B,,4 F,2 G,2 | D,2 F,2 C,4 |[M:2/4] !fermata!F,,4 ::[M:2/2] F,4 F,2 F,2 | C,2 F,2 B,,2 B,,2 | %10
w: eus- sert und|kam auff Er-|den:|den Tod- ten|er das Le- ben|
w: er wolt der|Mitt- ler wer-|den,|||
 F,4 F,4 | D,2 F,2 D,2 E,2 | F,2 G,2 C,4 | z2 F,2 F,2 B,,2 | F,2 F,2 G,4 | D,4 G,4 | %16
w: gab, und|legt da- bey all|Kranck- heit ab,|bisz sich die|Zeit her- lan-|ge, dasz|
w: ||||||
 F,2 D,2 C,2 G,,2 | D,2 D,2 G,4 | C,4 =B,,2 C,2 | F,,2 C,2 G,,2 G,,2 | C,4 F,4 | %21
w: er für uns ge-|opp- fert wird,|trug un- ser|Sünd ein schwe- re|Bürd, wol|
w: |||||
 E,2 F,2 B,,2 B,,2 | C,4 !fermata!F,,4 :| %23
w: an _ dem Creutz|lan- ge.|
w: ||

